X: 688
T: Jimmy in the Swamp
C:Traditional
B: jims roots
M:4/4
L:1/8
Q: 1/4=100
K:G
V:1 
%TablEdited by   Mike Stangeland
%460
XGE |: "G"DEGA BAGA | Bded ef g2 | DEGA BAGA | "D"BAGB AGEG |
"G"DEGA BAGA | Bded "C"efga | "G"bgag "C"efge|[1 d"D"BAF "G"G2 GE:|
"G"BAGB "D"AG E2 | "Em"[e4e4] [e4B4] | efed B2 gf | e2 E2 EFGA | "D"BGAF "G"G4:|
V:2 d"D"BAF "G"G4 |: "Em"[e4e4
V:[e4B4 
 | efed B2 gf | e2 E2 EFGA |
% abcbook-tune_id 6298c25df1ea3c4d72db92eb


% abcbook-boost 0
% abcbook-tablature 
% abcbook-transpose 
% abcbook-lastupdated 1654178399193
% abcbook-soundfonts 
% abcbook-repeats 1


